X: 61
T: MARGARET SHEEHAN
B: O'Neill's 61
M: 3/4
L: 1/4
Z: Transcribed by John Chambers <jc@trillian.mit.edu>
N: "Very slow"
N: "Collected by F.O'Neill"
K:G
zBA|G2E|D2E|G3|G2B|d2B|G2B|d3|
|d2e|d2B|BcBAG|A3|A2B|c2A|B2G|E3|
|G2A|B2d|d2e|d3|g2e|d2B|BcBAG|A2c|
|B2A|G2E|D2E|G2A|B2G|A2B|.G2.G|G3||
